X:1
T:Title
L:1/8
M:2/4
I:linebreak $
K:D
V:1 treble nm="Voice"
V:1
"D" A>A A/B/A/G/ | FA d>A |"G" BB/B/ B/c/B/A/ |"Em" Ge B>B |"A7" c>c c/d/c/B/ | Ac ef/a/ | ge Bc |1 %7
"D" ed"A7" AF :|2"D" d2 dF :|3"D" d2 d>c |:"G" BG DG | Bd gf/e/ |"D" dA FB | A2 Ad/B/ | %14
"A7" ca cb |1 a2 ae/c/ |"D" dA FB | A2 d>c :|2"A7" a2 ae/f/ | ge Bc |"D" d2 d>c :|3"A7" a2 ae/f/ | %22
 ge Bc |"D" d2 dF |] %24
